X: 41
T: All Those Endearing Young Charms
R: waltz
M: 3/4
L: 1/8
K: G
BA|"G"G3 A G2|G2 B2 d2|"C"c2 e2 g2|g3 f2e|"G"d3 c B2|"D"A2 G2 A2|"G"B6-|B4 BA|
"G"G3 A G2|G2 B2 d2|"C"c2 e2 g2|g3 fe2|"G"d2 g2 B2|"D"A3 G A2|"G"G6-|G4 dc||
"G"B2 G2 g2|g4 dd|"C"e2 c2 g2|g3 fe2|"G"d3 c B2|"D"A3 G A2|"G"B6-|B4 BA|
"G"G3 A G2|G2 B2 d2|"C"c2 e2 g2|g3 fe2|"G"d2 g2 B2|"D"A3 G A2|"G"G6-| G4||

